X: 24545
T: Luke Skywalker Walks On Sunshine
R: jig
M: 6/8
K: Gmajor
M:7/8
G2 AG Bdg|e2 ge dBA|G2 AG dcB|ec e/f/g fdB|
G2 AG Bdg|e2 ge dcB|cA BG ABc|dB cB AGF|
G2 AG Bdg|e2 ge dBA|G2 AG dcB|ec e/f/g fdB|
G2 AG Bdg|e2 ge dcB|cA BG ABc|BG AF GBd||
e2g d2 Gd|AGA B2 Bd|cA BG dcB|ec e/f/g fdB|
e2g d2 Gd|AGA B2 Bd|cA BG ABc|BG AF GBd|
e2g d2 Gd|AGA B2 Bd|cA BG dcB|ec e/f/g fdB|
c2e d2 Gd|AGA B2 Bd|cA BG ABc|BG AF GBA||

